X:19
T:Friendly Visit, The
S:Leo Rowsome. Classics of Irish Piping
D:Remastering of REX 15045. Reissued on Topic TSCD 471, 1993
N:1st time through, without ornaments or articulation, transcribed by Alan Ng 
Z: id:ng-other-19 Transcribed by Alan Ng alan@alan-ng.nospam (net) 6 Dec. 2001
K:GMaj
M:2/2
E:13
D2||G2DG BGBd|(3cBcAB cdef|gd(3Bcd ecAG|(3EFGAB (3cBAFD|\
G2DG BGBd|(3cBcAB cdef|gdBG FAdc|(3BcBG2 GGBA||*
G2DG BGBd|(3cBcAB cdef|gd(3Bcd ecAG|FGAB (3cBAFD|\
GGDG BGBd|(3cBcAB cdef|gdBG FAdc|(3BcBG2 G2(3def|*
|:gd(3BcB GBdg|(3efecA FAcg|(3fgfed ^cdeg|(3fgf(3efe d"listen"c{Bc}BA|\
G2DG BGBd|(3cBcAB cdef|gdBG FAdc|1(3BcBG2 G2(3def:|2(3BcBG2 G2BA|]**
